svg/weather/snow_fill.svg

<?xml version="1.0" encoding="UTF-8"?>
<svg width="24px" height="24px" viewBox="0 0 24 24" version="1.1" xmlns="http://www.w3.org/2000/svg" xmlns:xlink="http://www.w3.org/1999/xlink">
    <title>snow_fill</title>
    <g id="页面-1" stroke="none" stroke-width="1" fill="none" fill-rule="evenodd">
        <g id="Weather" transform="translate(-337.000000, -48.000000)" fill-rule="nonzero">
            <g id="snow_fill" transform="translate(337.000000, 48.000000)">
                 <path d="M24,0 L24,24 L0,24 L0,0 L24,0 Z M12.5934901,23.257841 L12.5819402,23.2595131 L12.5108777,23.2950439 L12.4918791,23.2987469 L12.4918791,23.2987469 L12.4767152,23.2950439 L12.4056548,23.2595131 C12.3958229,23.2563662 12.3870493,23.2590235 12.3821421,23.2649074 L12.3780323,23.275831 L12.360941,23.7031097 L12.3658947,23.7234994 L12.3769048,23.7357139 L12.4804777,23.8096931 L12.4953491,23.8136134 L12.4953491,23.8136134 L12.5071152,23.8096931 L12.6106902,23.7357139 L12.6232938,23.7196733 L12.6232938,23.7196733 L12.6266527,23.7031097 L12.609561,23.275831 C12.6075724,23.2657013 12.6010112,23.2592993 12.5934901,23.257841 L12.5934901,23.257841 Z M12.8583906,23.1452862 L12.8445485,23.1473072 L12.6598443,23.2396597 L12.6498822,23.2499052 L12.6498822,23.2499052 L12.6471943,23.2611114 L12.6650943,23.6906389 L12.6699349,23.7034178 L12.6699349,23.7034178 L12.678386,23.7104931 L12.8793402,23.8032389 C12.8914285,23.8068999 12.9022333,23.8029875 12.9078286,23.7952264 L12.9118235,23.7811639 L12.8776777,23.1665331 C12.8752882,23.1545897 12.8674102,23.1470016 12.8583906,23.1452862 L12.8583906,23.1452862 Z M12.1430473,23.1473072 C12.1332178,23.1423925 12.1221763,23.1452606 12.1156365,23.1525954 L12.1099173,23.1665331 L12.0757714,23.7811639 C12.0751323,23.7926639 12.0828099,23.8018602 12.0926481,23.8045676 L12.108256,23.8032389 L12.3092106,23.7104931 L12.3186497,23.7024347 L12.3186497,23.7024347 L12.3225043,23.6906389 L12.340401,23.2611114 L12.337245,23.2485176 L12.337245,23.2485176 L12.3277531,23.2396597 L12.1430473,23.1473072 Z" id="MingCute" fill-rule="nonzero"></path>
                <path d="M13,3 C13,2.44772 12.5523,2 12,2 C11.4477,2 11,2.44772 11,3 L11,3.9616 L10.346,3.6159 C9.85775,3.3578 9.25271,3.54439 8.99461,4.03266 C8.73651,4.52093 8.92311,5.12597 9.41137,5.38407 L11,6.22382 L11,8.12601 C10.285,8.31004 9.64737,8.6868 9.14578,9.1976 L7.49769,8.24608 L7.56477,6.45039 C7.58538,5.89849 7.15469,5.43438 6.60279,5.41376 C6.05089,5.39315 5.58678,5.82384 5.56616,6.37574 L5.53855,7.11496 L4.70578,6.63417 C4.22749,6.35802 3.6159,6.5219 3.33976,7.00019 C3.06361,7.47848 3.22749,8.09007 3.70578,8.36622 L4.53855,8.84701 L3.91217,9.24054 C3.44451,9.53435 3.30358,10.1516 3.59739,10.6193 C3.89119,11.0869 4.50847,11.2279 4.97613,10.9341 L6.49769,9.97813 L8.14495,10.9292 C8.05048,11.27 8,11.6291 8,12 C8,12.3709 8.05048,12.73 8.14494,13.0708 L6.49764,14.0219 L4.97608,13.0659 C4.50842,12.7721 3.89114,12.9131 3.59734,13.3807 C3.30353,13.8484 3.44447,14.4657 3.91212,14.7595 L4.5385,15.153 L3.70573,15.6338 C3.22744,15.9099 3.06357,16.5215 3.33971,16.9998 C3.61585,17.4781 4.22744,17.642 4.70573,17.3658 L5.5385,16.885 L5.56611,17.6243 C5.58673,18.1762 6.05085,18.6069 6.60275,18.5862 C7.15464,18.5656 7.58534,18.1015 7.56472,17.5496 L7.49764,15.7539 L9.14576,14.8024 C9.64735,15.3132 10.285,15.69 11,15.874 L11,17.7762 L9.41137,18.6159 C8.92311,18.874 8.73651,19.4791 8.99461,19.9673 C9.25271,20.4556 9.85775,20.6422 10.346,20.3841 L11,20.0384 L11,21 C11,21.5523 11.4477,22 12,22 C12.5523,22 13,21.5523 13,21 L13,20.0384 L13.654,20.3841 C14.1423,20.6422 14.7473,20.4556 15.0054,19.9673 C15.2635,19.4791 15.0769,18.874 14.5887,18.6159 L13,17.7762 L13,15.874 C13.7149,15.69 14.3524,15.3133 14.854,14.8026 L16.5023,15.7543 L16.4353,17.55 C16.4146,18.1019 16.8453,18.566 17.3972,18.5866 C17.9491,18.6072 18.4132,18.1765 18.4339,17.6246 L18.4615,16.8854 L19.2942,17.3662 C19.7725,17.6424 20.3841,17.4785 20.6603,17.0002 C20.9364,16.5219 20.7725,15.9103 20.2942,15.6342 L19.4615,15.1534 L20.0879,14.7598 C20.5555,14.466 20.6964,13.8488 20.4026,13.3811 C20.1088,12.9135 19.4915,12.7725 19.0239,13.0663 L17.5023,14.0223 L15.855,13.0711 C15.9495,12.7302 16,12.371 16,12 C16,11.629 15.9495,11.2698 15.855,10.9288 L17.5023,9.97774 L19.0238,10.9337 C19.4915,11.2275 20.1088,11.0865 20.4026,10.6189 C20.6964,10.1512 20.5555,9.53396 20.0878,9.24016 L19.4614,8.84663 L20.2942,8.36583 C20.7725,8.08969 20.9364,7.4781 20.6602,6.99981 C20.3841,6.52152 19.7725,6.35764 19.2942,6.63378 L18.4614,7.11458 L18.4338,6.37535 C18.4132,5.82345 17.9491,5.39276 17.3972,5.41338 C16.8453,5.434 16.4146,5.89811 16.4352,6.45001 L16.5023,8.24569 L14.854,9.19735 C14.3524,8.68668 13.7149,8.31002 13,8.12602 L13,6.22382 L14.5887,5.38407 C15.0769,5.12597 15.2635,4.52093 15.0054,4.03266 C14.7473,3.54439 14.1423,3.3578 13.654,3.6159 L13,3.9616 L13,3 Z" id="路径" fill="#09244B"></path>
            </g>
        </g>
    </g>
</svg>

<svg xmlns="http://www.w3.org/2000/svg" width="24" height="24"><g fill="none" fill-rule="nonzero"><path d="M24 0v24H0V0h24ZM12.593 23.258l-.011.002-.071.035-.02.004-.014-.004-.071-.035c-.01-.004-.019-.001-.024.005l-.004.01-.017.428.005.02.01.013.104.074.015.004.012-.004.104-.074.012-.016.004-.017-.017-.427c-.002-.01-.009-.017-.017-.018Zm.265-.113-.013.002-.185.093-.01.01-.003.011.018.43.005.012.008.007.201.093c.012.004.023 0 .029-.008l.004-.014-.034-.614c-.003-.012-.01-.02-.02-.022Zm-.715.002a.023.023 0 0 0-.027.006l-.006.014-.034.614c0 .012.007.02.017.024l.015-.002.201-.093.01-.008.004-.011.017-.43-.003-.012-.01-.01-.184-.092Z"/><path fill="#09244B" d="M13 3a1 1 0 1 0-2 0v.962l-.654-.346a1 1 0 1 0-.935 1.768l1.589.84v1.902a3.996 3.996 0 0 0-1.854 1.072l-1.648-.952.067-1.796a1 1 0 0 0-1.999-.074l-.027.739-.833-.48a1 1 0 1 0-1 1.731l.833.481-.627.394a1 1 0 0 0 1.064 1.693l1.522-.956 1.647.951a4.003 4.003 0 0 0 0 2.142l-1.647.95-1.522-.955a1 1 0 0 0-1.064 1.693l.627.394-.833.48a1 1 0 1 0 1 1.733l.832-.481.028.74a1 1 0 1 0 1.999-.075l-.067-1.796 1.648-.952c.501.511 1.139.888 1.854 1.072v1.902l-1.589.84a1 1 0 0 0 .935 1.768l.654-.346V21a1 1 0 1 0 2 0v-.962l.654.346a1 1 0 0 0 .935-1.768L13 17.776v-1.902a3.996 3.996 0 0 0 1.854-1.071l1.648.951-.067 1.796a1 1 0 1 0 1.999.075l.027-.74.833.481a1 1 0 1 0 1-1.732l-.832-.48.626-.394a1 1 0 0 0-1.064-1.694l-1.522.956-1.647-.95a4.004 4.004 0 0 0 0-2.143l1.647-.951 1.522.956a1 1 0 0 0 1.064-1.694l-.627-.393.833-.481a1 1 0 1 0-1-1.732l-.833.48-.027-.739a1 1 0 1 0-1.999.075l.067 1.796-1.648.951A3.996 3.996 0 0 0 13 8.126V6.224l1.589-.84a1 1 0 0 0-.935-1.768L13 3.962V3Z"/></g></svg>
